assets/Woman with white cane/Dark/Flat/woman_with_white_cane_flat_dark.svg

<svg width="32" height="32" viewBox="0 0 32 32" fill="none" xmlns="http://www.w3.org/2000/svg">
<path d="M19.25 6.67712L19.57 8.64712L17.55 8.99712L17.24 6.98712L19.25 6.67712Z" fill="#452829"/>
<path d="M19.345 19.1539L19.9 21.1672C20.1389 21.6831 20.7063 22.2264 21.3844 22.8756C21.416 22.9059 21.4479 22.9364 21.48 22.9672L25.6 27.0272L26.97 26.1572L22.95 20.7172C22.89 20.6372 22.84 20.5472 22.82 20.4472L21.91 16.6612L19.345 19.1539Z" fill="#636363"/>
<path d="M21.8 16L19.5279 15.4772L17.04 16L16.81 20.3771C16.8 21.0571 16.91 21.7771 17.13 22.7471L18.25 27.7571L18.9578 28.5171H19.87L19.6 21.4271L21.69 17.8871C21.93 17.4871 22 17.0171 21.89 16.5571L21.8 16Z" fill="#9B9B9B"/>
<path d="M27.6799 26.7071L26.7099 25.8071L25.1099 26.5271L24.4599 29.5771C24.4099 29.9171 24.8299 30.1171 25.0699 29.8671L27.6899 27.0571C27.7799 26.9571 27.7799 26.7971 27.6799 26.7071Z" fill="#533566"/>
<path d="M19.87 28.5172L18.3489 27.8036L18.26 27.7672L15.59 29.3672C15.3 29.5672 15.44 30.0072 15.79 30.0072H19.63C19.76 30.0072 19.87 29.8972 19.87 29.7572V28.4272L19.8665 28.4257L19.87 28.5172Z" fill="#533566"/>
<path d="M17.7844 9.56642C18.2929 9.61853 18.6628 10.073 18.6107 10.5815L18.6105 10.5834L18.6103 10.5857L18.6097 10.5912L18.608 10.6057C18.6067 10.6169 18.6049 10.6312 18.6025 10.6485C18.5978 10.6832 18.5909 10.7298 18.581 10.7875C18.5611 10.9028 18.5293 11.0626 18.4795 11.2591C18.38 11.652 18.208 12.1934 17.9148 12.8212C17.3555 14.0189 16.3582 15.5226 14.5989 16.8991L14.42 17.2471L14.3904 17.2991C14.3653 17.3434 14.3373 17.3928 14.307 17.4444V17.6406L14.0712 17.7969C14.0117 17.87 13.9504 17.9309 13.89 17.9671C13.66 18.1071 13.15 17.9671 12.81 17.7571C12.81 17.7571 12.39 17.4971 12.2 17.1271C12.05 16.8471 12.35 16.6571 12.35 16.6571C12.35 16.6571 12.35 16.5271 12.32 16.1871C12.3001 15.9195 12.5284 15.7771 12.7637 15.7016L13.0391 15.5273L13.226 15.6183C14.8782 14.3922 15.7641 13.0522 16.2377 12.038C16.4758 11.5282 16.6107 11.0985 16.6852 10.8044C16.7225 10.6575 16.7445 10.5449 16.7567 10.4738C16.7629 10.4382 16.7665 10.4131 16.7684 10.3993L16.7699 10.3873C16.8247 9.88165 17.2777 9.51449 17.7844 9.56642Z" fill="#573739"/>
<path d="M17.6899 13.4571C18.2999 12.2971 18.5999 11.2571 18.7399 10.4871C18.8599 9.85712 18.3899 9.26712 17.7399 9.23712H17.6999C17.2099 9.24712 16.7999 9.60712 16.7199 10.0871C16.6699 10.3771 16.5899 10.7271 16.4499 11.1271C16.2999 11.5971 16.0999 12.0571 15.8699 12.5071C15.8299 12.5871 15.8599 12.6771 15.9399 12.7171L17.4799 13.5271C17.5599 13.5671 17.6499 13.5371 17.6899 13.4571Z" fill="#774AA6"/>
<path d="M18.8399 8.34717C17.4299 8.34717 16.3399 9.56717 16.4899 10.9672L17.0399 16H21.7999L21.1999 10.4572C21.0599 9.26717 20.0499 8.34717 18.8399 8.34717Z" fill="#8B62BF"/>
<path d="M13.3896 18.1362L12.6173 17.5929L8.57835 23.078L8.64453 23.832L9.33937 23.6367L13.3896 18.1362Z" fill="#D3D3D3"/>
<path d="M4.83872 28.1574L6.26953 26.2187L6.97266 26.0664L7.07812 26.4062L7.03481 26.7664L5.59806 28.7176C5.62526 28.7991 5.64 28.8864 5.64 28.9772C5.64 29.43 5.27287 29.7972 4.82 29.7972C4.36713 29.7972 4 29.43 4 28.9772C4 28.5243 4.36713 28.1572 4.82 28.1572C4.82626 28.1572 4.8325 28.1572 4.83872 28.1574Z" fill="#D3D3D3"/>
<path d="M7.02002 26.7771L9.34002 23.6371L8.58002 23.0771L6.27002 26.2271L7.02002 26.7771Z" fill="#F92F60"/>
<path d="M14 15.2873C13.6913 15.2873 13.4124 15.4144 13.2127 15.6192C13.1336 15.6246 12.9406 15.6434 12.7542 15.7047C12.9955 15.265 13.4629 14.9669 14 14.9669C14.7843 14.9669 15.4202 15.6028 15.4202 16.3871C15.4202 17.1501 14.8185 17.7726 14.0637 17.8059C14.1517 17.6995 14.2359 17.5654 14.3076 17.4433C14.7652 17.3103 15.0998 16.8878 15.0998 16.3871C15.0998 15.7797 14.6074 15.2873 14 15.2873Z" fill="#635994"/>
<path d="M13.1901 17.1771C13.04 17.2482 12.8649 17.2132 12.7536 17.1017L12.1601 17.9072C12.0901 18.0072 12.1101 18.1372 12.2101 18.2072L12.9301 18.7372C13.0301 18.8072 13.1601 18.7872 13.2301 18.6872L14.6301 16.7872C14.6901 16.6872 14.6701 16.5572 14.5801 16.4872L13.8601 15.9572C13.7601 15.8872 13.6301 15.9072 13.5601 16.0072L13.2686 16.4027L13.3701 16.6671C13.4601 16.8571 13.3801 17.0871 13.1901 17.1771Z" fill="#635994"/>
<path d="M24.7672 16.09C24.8939 16.3603 24.9686 16.652 24.9872 16.95C24.9472 17.22 24.5072 17.53 24.1372 17.66C23.8571 17.7524 23.5595 17.7798 23.2672 17.74C22.9572 17.68 22.9972 17.32 22.9972 17.32C22.9972 17.32 22.8972 17.24 22.6172 17.04C22.2272 16.771 22.6172 16.159 22.7282 16C22.7152 15.971 22.6922 15.95 22.6812 15.92C22.1576 14.3548 21.2723 12.935 20.0972 11.776C19.7564 11.4402 19.3885 11.1332 18.9972 10.858C18.8592 10.758 18.7512 10.694 18.6802 10.651L18.5902 10.599L18.1992 9.35199C18.6172 8.55199 19.3762 8.86599 20.0532 9.33699C20.5295 9.67112 20.9777 10.0437 21.3932 10.451C22.9239 12.0558 24.0767 13.9825 24.7672 16.09Z" fill="#573739"/>
<path d="M21.89 10.7771C21.01 9.80715 20.13 9.16715 19.46 8.77715C18.91 8.44715 18.19 8.69715 17.94 9.28715L17.93 9.31715C17.78 9.77715 17.97 10.2871 18.39 10.5271C18.64 10.6771 18.95 10.8771 19.28 11.1371C19.67 11.4471 20.03 11.7871 20.37 12.1571C20.43 12.2171 20.53 12.2271 20.59 12.1671L21.88 11.0071C21.95 10.9471 21.95 10.8471 21.89 10.7771Z" fill="#A17FD5"/>
<path d="M18.3301 3.08L17.2901 3.09C16.4101 3.1 15.7001 3.82 15.7001 4.7V5.15C15.7001 5.29 15.6601 5.43 15.5901 5.55C15.3801 5.92 15.2801 5.95 15.2701 6.13C15.2601 6.41 15.5201 6.48 15.6401 6.49C15.6801 6.49 15.7101 6.53 15.7101 6.56C15.7401 7.55 15.9301 8.26 17.1101 8.25C17.8301 8.25 18.9701 7.88 19.2901 7.02L19.5901 5.87L19.9301 4.67C19.9301 3.79 19.2101 3.07 18.3301 3.08Z" fill="#573739"/>
<path d="M16.7128 6.52813C16.7691 6.54614 16.8001 6.60637 16.7821 6.66265C16.6831 6.97211 16.3506 7.12893 16.0476 7.03195C15.9913 7.01394 15.9603 6.95371 15.9783 6.89743C15.9963 6.84114 16.0565 6.81012 16.1128 6.82813C16.3097 6.89115 16.5173 6.78797 16.5783 6.59743C16.5963 6.54115 16.6565 6.51012 16.7128 6.52813Z" fill="#290118"/>
<path d="M16.9003 4.77163C16.8747 4.77199 16.8498 4.7639 16.8293 4.74862C16.6517 4.62872 16.437 4.57655 16.2243 4.60163C16.1943 4.60475 16.1642 4.59606 16.1405 4.57739C16.1168 4.55872 16.1013 4.53154 16.0973 4.50163C16.0955 4.48671 16.0966 4.47159 16.1007 4.45713C16.1047 4.44266 16.1116 4.42914 16.1209 4.41734C16.1302 4.40554 16.1417 4.39569 16.1548 4.38836C16.1679 4.38103 16.1823 4.37636 16.1973 4.37463C16.4709 4.34212 16.7467 4.41349 16.9703 4.57462C16.9821 4.58373 16.9919 4.59507 16.9993 4.608C17.0067 4.62093 17.0115 4.63519 17.0133 4.64997C17.0152 4.66474 17.0141 4.67974 17.0102 4.6941C17.0062 4.70845 16.9994 4.72189 16.9903 4.73363C16.979 4.74623 16.9651 4.75618 16.9495 4.76275C16.934 4.76933 16.9172 4.77236 16.9003 4.77163Z" fill="black"/>
<path d="M16.0701 5.19002C16.0701 5.19002 16.2601 4.85002 16.6701 4.92002C16.8301 4.95002 16.9501 5.03002 17.0201 5.11002C17.0801 5.18002 17.0701 5.28002 17.0001 5.33002L16.7101 5.53002L16.0701 5.19002Z" fill="black"/>
<path d="M16.1 5.6C16.04 5.6 15.99 5.54 15.99 5.47V5.46C15.99 5.17 16.24 5 16.48 5C16.72 5 16.98 5.16 16.98 5.46V5.47C16.98 5.54 16.93 5.6 16.87 5.6H16.1Z" fill="white"/>
<path d="M16.01 5.60001C16 5.56001 15.99 5.51001 15.99 5.46001C15.99 5.25001 16.12 5.07001 16.29 5.07001C16.46 5.07001 16.59 5.24001 16.59 5.45001C16.59 5.50001 16.57 5.55001 16.56 5.60001H16.01Z" fill="#7D4533"/>
<path d="M16.1101 5.59999C16.0901 5.55999 16.0701 5.51999 16.0701 5.45999C16.0701 5.33999 16.1501 5.23999 16.2401 5.23999C16.3401 5.23999 16.4101 5.33999 16.4101 5.45999C16.4101 5.50999 16.4001 5.55999 16.3701 5.59999H16.1101Z" fill="black"/>
<path d="M16.1407 5.38005C16.1738 5.37985 16.2005 5.34835 16.2003 5.30969C16.2 5.27103 16.173 5.23985 16.1398 5.24005C16.1067 5.24025 16.08 5.27175 16.0803 5.31041C16.0805 5.34907 16.1075 5.38025 16.1407 5.38005Z" fill="white"/>
<path d="M16.6801 2.04002C16.1501 1.84002 15.6001 2.37002 15.4501 2.92002C15.3501 3.31002 15.4801 3.70002 15.7901 3.98002C15.8701 4.06002 15.9901 4.13002 16.1301 4.19002C16.2401 4.23002 16.3701 4.27002 16.5001 4.28002C16.7501 4.31002 17.0001 4.26002 17.2201 4.16002C17.3501 4.10002 17.5001 4.08002 17.6401 4.10002C17.8101 4.13002 17.9701 4.21002 18.0801 4.35002C18.1679 4.46474 18.2328 4.59766 18.2658 4.73959C18.5988 4.76843 18.8585 5.04643 18.8585 5.38712C18.8585 5.72182 18.6078 5.99602 18.2833 6.0329L18.2801 6.53002C18.2701 7.34002 18.7801 8.08002 19.5701 8.32002C19.6001 8.33002 19.6301 8.34002 19.6701 8.35002L19.7901 8.38002C20.5101 8.53002 21.2901 8.08002 21.4501 7.23002C21.5201 6.83002 21.4001 6.42002 21.1401 6.12002C21.1064 6.07959 21.0682 6.04371 21.0316 6.0093C21.0138 5.99264 20.9964 5.97633 20.9801 5.96002C20.7501 5.76002 20.6601 5.46002 20.7201 5.17002C20.8001 4.83002 20.8401 4.37002 20.8301 3.76002C20.8001 2.02002 19.2001 1.85002 18.1201 2.18002C17.5477 2.35492 17.3545 2.28333 16.9979 2.15115C16.9059 2.11707 16.8031 2.07897 16.6801 2.04002Z" fill="black"/>
</svg>

<svg xmlns="http://www.w3.org/2000/svg" width="32" height="32" fill="none"><path fill="#452829" d="m19.25 6.677.32 1.97-2.02.35-.31-2.01 2.01-.31Z"/><path fill="#636363" d="m19.345 19.154.555 2.013c.239.516.806 1.06 1.484 1.709l.096.091 4.12 4.06 1.37-.87-4.02-5.44a.678.678 0 0 1-.13-.27l-.91-3.786-2.565 2.493Z"/><path fill="#9B9B9B" d="m21.8 16-2.272-.523L17.04 16l-.23 4.377c-.01.68.1 1.4.32 2.37l1.12 5.01.708.76h.912l-.27-7.09 2.09-3.54c.24-.4.31-.87.2-1.33L21.8 16Z"/><path fill="#533566" d="m27.68 26.707-.97-.9-1.6.72-.65 3.05c-.05.34.37.54.61.29l2.62-2.81c.09-.1.09-.26-.01-.35ZM19.87 28.517l-1.521-.713-.089-.037-2.67 1.6c-.29.2-.15.64.2.64h3.84c.13 0 .24-.11.24-.25v-1.33l-.004-.001.004.091Z"/><path fill="#573739" d="M17.784 9.566a.926.926 0 0 1 .827 1.015v.005l-.001.005-.002.015a6.276 6.276 0 0 1-.128.653c-.1.393-.272.934-.565 1.562-.56 1.198-1.557 2.702-3.316 4.078l-.179.348-.03.052-.083.145v.197l-.236.156a.75.75 0 0 1-.181.17c-.23.14-.74 0-1.08-.21 0 0-.42-.26-.61-.63-.15-.28.15-.47.15-.47s0-.13-.03-.47c-.02-.268.208-.41.444-.485l.275-.175.187.091c1.652-1.226 2.538-2.566 3.012-3.58.238-.51.373-.94.447-1.234a4.344 4.344 0 0 0 .083-.405l.002-.012a.926.926 0 0 1 1.014-.82Z"/><path fill="#774AA6" d="M17.69 13.457c.61-1.16.91-2.2 1.05-2.97.12-.63-.35-1.22-1-1.25h-.04c-.49.01-.9.37-.98.85-.05.29-.13.64-.27 1.04-.15.47-.35.93-.58 1.38-.04.08-.01.17.07.21l1.54.81c.08.04.17.01.21-.07Z"/><path fill="#8B62BF" d="M18.84 8.347c-1.41 0-2.5 1.22-2.35 2.62L17.04 16h4.76l-.6-5.543a2.388 2.388 0 0 0-2.36-2.11Z"/><path fill="#D3D3D3" d="m13.39 18.136-.773-.543-4.039 5.485.067.754.694-.195 4.05-5.5ZM4.839 28.157l1.43-1.938.704-.153.105.34-.043.36-1.437 1.952a.819.819 0 0 1-.778 1.08.82.82 0 1 1 .019-1.64Z"/><path fill="#F92F60" d="m7.02 26.777 2.32-3.14-.76-.56-2.31 3.15.75.55Z"/><path fill="#635994" d="M14 15.287c-.309 0-.588.127-.787.332-.08.006-.272.024-.459.086a1.42 1.42 0 1 1 1.31 2.1 2.86 2.86 0 0 0 .244-.362A1.1 1.1 0 0 0 14 15.287Z"/><path fill="#635994" d="M13.19 17.177a.386.386 0 0 1-.436-.075l-.594.805c-.07.1-.05.23.05.3l.72.53c.1.07.23.05.3-.05l1.4-1.9a.23.23 0 0 0-.05-.3l-.72-.53a.211.211 0 0 0-.3.05l-.291.396.101.264c.09.19.01.42-.18.51Z"/><path fill="#573739" d="M24.767 16.09c.127.27.202.562.22.86-.04.27-.48.58-.85.71-.28.092-.578.12-.87.08-.31-.06-.27-.42-.27-.42s-.1-.08-.38-.28c-.39-.269 0-.881.111-1.04-.013-.029-.036-.05-.047-.08a10.499 10.499 0 0 0-2.584-4.144 8.689 8.689 0 0 0-1.1-.918c-.138-.1-.246-.164-.317-.207l-.09-.052-.39-1.247c.417-.8 1.176-.486 1.853-.015.476.334.925.707 1.34 1.114a14.885 14.885 0 0 1 3.374 5.639Z"/><path fill="#A17FD5" d="M21.89 10.777c-.88-.97-1.76-1.61-2.43-2-.55-.33-1.27-.08-1.52.51l-.01.03c-.15.46.04.97.46 1.21.25.15.56.35.89.61.39.31.75.65 1.09 1.02.06.06.16.07.22.01l1.29-1.16c.07-.06.07-.16.01-.23Z"/><path fill="#573739" d="m18.33 3.08-1.04.01c-.88.01-1.59.73-1.59 1.61v.45c0 .14-.04.28-.11.4-.21.37-.31.4-.32.58-.01.28.25.35.37.36.04 0 .07.04.07.07.03.99.22 1.7 1.4 1.69.72 0 1.86-.37 2.18-1.23l.3-1.15.34-1.2c0-.88-.72-1.6-1.6-1.59Z"/><path fill="#290118" d="M16.713 6.528a.107.107 0 0 1 .07.135.58.58 0 0 1-.735.369.107.107 0 0 1 .065-.204.367.367 0 0 0 .465-.23.107.107 0 0 1 .135-.07Z"/><path fill="#000" d="M16.9 4.772a.116.116 0 0 1-.07-.023.894.894 0 0 0-.606-.147.116.116 0 0 1-.127-.1.113.113 0 0 1 .058-.114.114.114 0 0 1 .042-.013 1.1 1.1 0 0 1 .773.2.113.113 0 0 1 .02.159.114.114 0 0 1-.09.038ZM16.07 5.19s.19-.34.6-.27c.16.03.28.11.35.19.06.07.05.17-.02.22l-.29.2-.64-.34Z"/><path fill="#fff" d="M16.1 5.6c-.06 0-.11-.06-.11-.13v-.01c0-.29.25-.46.49-.46s.5.16.5.46v.01c0 .07-.05.13-.11.13h-.77Z"/><path fill="#7D4533" d="M16.01 5.6a.59.59 0 0 1-.02-.14c0-.21.13-.39.3-.39.17 0 .3.17.3.38 0 .05-.02.1-.03.15h-.55Z"/><path fill="#000" d="M16.11 5.6a.29.29 0 0 1-.04-.14c0-.12.08-.22.17-.22.1 0 .17.1.17.22 0 .05-.01.1-.04.14h-.26Z"/><path fill="#fff" d="M16.14 5.38c.034 0 .06-.032.06-.07 0-.039-.027-.07-.06-.07s-.06.032-.06.07c0 .04.028.07.06.07Z"/><path fill="#000" d="M16.68 2.04c-.53-.2-1.08.33-1.23.88-.1.39.03.78.34 1.06.08.08.2.15.34.21.11.04.24.08.37.09.25.03.5-.02.72-.12.13-.06.28-.08.42-.06.17.03.33.11.44.25.088.115.153.248.186.39a.649.649 0 0 1 .593.647c0 .335-.251.609-.576.646l-.003.497c-.01.81.5 1.55 1.29 1.79.03.01.06.02.1.03l.12.03c.72.15 1.5-.3 1.66-1.15.07-.4-.05-.81-.31-1.11-.034-.04-.072-.076-.108-.11a2.16 2.16 0 0 1-.052-.05c-.23-.2-.32-.5-.26-.79.08-.34.12-.8.11-1.41-.03-1.74-1.63-1.91-2.71-1.58-.572.175-.765.103-1.122-.029-.092-.034-.195-.072-.318-.111Z"/></svg>
